X:1
T: Marchioness of Huntly
T: 2nd Setting
R:Strathspey
Q: 128
K:C
M:4/4
L:1/16
|:E2|Cc3 c3E G4 G3E|Cc3 c3E D4 D3E|Cc3 c3E G3A c3d|cA3 c3E D4 D2E2|
Cc3 c3E G4 G3E|Cc3 c3E D4 D3E|Cc3 c3E G3A c3d|cA3 c3E D4 D2ef|
g3c agfe g3c agfe|g3c agfe d4 d2ef|g3c agfe c3g e3g|fefg agfe d4 d2ef|
g3c agfe g3c agfe|g3c agfe d4 d2ef|g3e f3d ec3 e3d|dcBA c3E D4 D2:|
